assets/Face with spiral eyes/Flat/face_with_spiral_eyes_flat.svg

<svg width="32" height="32" viewBox="0 0 32 32" fill="none" xmlns="http://www.w3.org/2000/svg">
<path d="M15.9989 29.9978C25.3333 29.9978 29.9978 23.7303 29.9978 15.9989C29.9978 8.26751 25.3333 2 15.9989 2C6.66443 2 2 8.26751 2 15.9989C2 23.7303 6.66443 29.9978 15.9989 29.9978Z" fill="#FFB02E"/>
<path d="M10.487 10.057C8.29357 9.57888 6.3012 11.298 5.95779 13.4757C5.87176 14.0213 5.35977 14.3938 4.81423 14.3078C4.26868 14.2217 3.89617 13.7098 3.9822 13.1642C4.45879 10.1419 7.32642 7.32107 10.913 8.10292C13.7614 8.72027 15.5741 11.5316 14.9574 14.3813C14.4404 16.7724 12.0872 18.2838 9.69866 17.7674C7.67836 17.3306 6.39597 15.338 6.83258 13.3186L6.83341 13.3148C7.01217 12.5035 7.45318 11.8085 8.11929 11.369C8.78771 10.928 9.60317 10.7972 10.4267 10.9716C11.4302 11.1832 11.9575 12.0837 12.0964 12.7929C12.171 13.1739 12.165 13.6211 11.9896 14.0419C11.8025 14.4907 11.4321 14.8738 10.8883 15.0375C10.3595 15.1967 9.80167 14.8971 9.64245 14.3683C9.50178 13.901 9.71928 13.4112 10.1366 13.1936L10.1336 13.1771C10.1167 13.0906 10.0777 13.0109 10.0363 12.9602C10.0202 12.9404 10.0086 12.9305 10.0025 12.9261C9.65146 12.8541 9.39542 12.9231 9.2207 13.0384C9.04212 13.1562 8.86842 13.3757 8.78699 13.7432C8.58483 14.6833 9.18227 15.6095 10.1213 15.8126C11.4328 16.0961 12.7196 15.2676 13.0026 13.9586C13.3856 12.1889 12.2591 10.4406 10.4884 10.0573L10.487 10.057ZM9.99769 12.9231C9.9977 12.9231 9.99832 12.9234 9.99951 12.9241L9.99769 12.9231Z" fill="#402A32"/>
<path d="M11.9393 21.6465C12.5251 21.0607 13.4749 21.0607 14.0607 21.6465L16 23.5858L17.9393 21.6465C18.5251 21.0607 19.4749 21.0607 20.0607 21.6465L22 23.5858L23.7929 21.7929C24.1834 21.4024 24.8166 21.4024 25.2071 21.7929C25.5976 22.1834 25.5976 22.8166 25.2071 23.2071L23.0607 25.3536C22.4749 25.9394 21.5251 25.9394 20.9393 25.3536L19 23.4142L17.0607 25.3536C16.4749 25.9394 15.5251 25.9394 14.9393 25.3536L13 23.4142L11.0607 25.3536C10.4749 25.9394 9.52513 25.9394 8.93934 25.3536L6.79289 23.2071C6.40237 22.8166 6.40237 22.1834 6.79289 21.7929C7.18342 21.4024 7.81658 21.4024 8.20711 21.7929L10 23.5858L11.9393 21.6465Z" fill="#402A32"/>
<path d="M26.0121 13.4757C25.6687 11.298 23.6763 9.57888 21.4828 10.057L21.4814 10.0573C19.7107 10.4406 18.5842 12.1887 18.9672 13.9584C19.2502 15.2673 20.5371 16.0961 21.8485 15.8126C22.7876 15.6095 23.385 14.6833 23.1829 13.7432C23.1014 13.3757 22.9277 13.1562 22.7491 13.0384C22.5744 12.9231 22.3184 12.8541 21.9674 12.9261C21.9613 12.9305 21.9497 12.9404 21.9336 12.9602C21.8922 13.0109 21.8531 13.0906 21.8362 13.1771L21.8333 13.1936C22.2506 13.4112 22.4681 13.901 22.3274 14.3683C22.1682 14.8971 21.6104 15.1967 21.0816 15.0375C20.5377 14.8738 20.1673 14.4907 19.9803 14.0419C19.8049 13.6211 19.7989 13.1739 19.8735 12.7929C20.0123 12.0837 20.5397 11.1832 21.5432 10.9716C22.3667 10.7972 23.1821 10.928 23.8506 11.369C24.5167 11.8085 24.9577 12.5035 25.1364 13.3148L25.1373 13.3186C25.5739 15.338 24.2915 17.3306 22.2712 17.7674C19.8827 18.2838 17.5294 16.7724 17.0124 14.3813C16.3957 11.5316 18.2085 8.72027 21.0569 8.10292C24.6434 7.32107 27.5111 10.1419 27.9876 13.1642C28.0737 13.7098 27.7012 14.2217 27.1556 14.3078C26.6101 14.3938 26.0981 14.0213 26.0121 13.4757ZM21.9717 12.9233C21.9717 12.9233 21.972 12.9232 21.9717 12.9233Z" fill="#402A32"/>
</svg>

<svg xmlns="http://www.w3.org/2000/svg" width="32" height="32" fill="none"><path fill="#FFB02E" d="M15.999 29.998c9.334 0 13.999-6.268 13.999-14 0-7.73-4.665-13.998-14-13.998C6.665 2 2 8.268 2 15.999c0 7.731 4.664 13.999 13.999 13.999Z"/><path fill="#402A32" d="M10.487 10.057c-2.193-.478-4.186 1.241-4.53 3.419a1 1 0 1 1-1.975-.312c.477-3.022 3.344-5.843 6.931-5.061a5.283 5.283 0 0 1 4.044 6.278A4.42 4.42 0 0 1 9.7 17.767a3.742 3.742 0 0 1-2.866-4.448v-.004c.18-.811.62-1.506 1.286-1.946.669-.441 1.484-.572 2.308-.397 1.003.211 1.53 1.112 1.67 1.82.074.382.068.83-.107 1.25a1.713 1.713 0 0 1-1.102.995 1 1 0 0 1-.751-1.843l-.003-.017a.513.513 0 0 0-.098-.217.19.19 0 0 0-.034-.034c-.35-.072-.607-.003-.781.112-.179.118-.353.338-.434.705a1.742 1.742 0 0 0 1.334 2.07 2.42 2.42 0 0 0 2.882-1.854 3.284 3.284 0 0 0-2.515-3.902h-.001Zm-.49 2.866.003.001h-.002ZM11.94 21.646a1.5 1.5 0 0 1 2.12 0l1.94 1.94 1.94-1.94a1.5 1.5 0 0 1 2.12 0l1.94 1.94 1.793-1.793a1 1 0 0 1 1.414 1.414l-2.146 2.147a1.5 1.5 0 0 1-2.122 0L19 23.414l-1.94 1.94a1.5 1.5 0 0 1-2.12 0L13 23.414l-1.94 1.94a1.5 1.5 0 0 1-2.12 0l-2.147-2.147a1 1 0 1 1 1.414-1.414L10 23.586l1.94-1.94ZM26.012 13.476c-.343-2.178-2.336-3.897-4.53-3.419a3.283 3.283 0 0 0-2.515 3.901 2.42 2.42 0 0 0 2.882 1.855 1.742 1.742 0 0 0 1.334-2.07c-.082-.367-.255-.587-.434-.705-.175-.115-.43-.184-.782-.112a.19.19 0 0 0-.033.034.514.514 0 0 0-.098.217l-.003.017a1 1 0 0 1-.751 1.843 1.712 1.712 0 0 1-1.102-.995 2.175 2.175 0 0 1-.107-1.25c.14-.708.667-1.609 1.67-1.82.824-.175 1.64-.044 2.308.397.666.44 1.107 1.135 1.285 1.946l.001.004a3.742 3.742 0 0 1-2.866 4.448 4.42 4.42 0 0 1-5.259-3.386 5.283 5.283 0 0 1 4.045-6.278c3.586-.782 6.454 2.039 6.93 5.061a1 1 0 1 1-1.975.312Zm-4.04-.553Z"/></svg>
